X: 54
M: C|
L: 1/8
K: F
V: 1
EGGB Beeg | ((3gfe) ((3dcB) {B}A3G | FA-Ac- cf-fe/d/ | cB/A/ BA/G/ F3 |]
V: 2 clef=bass middle=d
z |\
fgab afac' | bgaf c'cef | gabg a=bc'b | c'2g2 c3 :: z |
c2c2 c2c2 | c2e2 f3c | f2f2 fgab | afc'c f3 |]

